X: 95
T: Come, Thou Almighty King
C: words: Charles Wesley
C: music: Felice Giardini
%R: air, waltz
B: "The Everyday Song Book", 1927
F: http://www.library.pitt.edu/happybirthday/pdf/The_Everyday_Song_Book.pdf
Z: 2017 John Chambers <jc:trillian.mit.edu>
N: Reformatted to 3 staff lines due to extreme compactness of the book's version.
M: 3/4
L: 1/4
K: G
% - - - - - - - - - - - - - - - - - - - - - - - - - - - - -
[| d B G | (A G) F | G3 | G A B | (c/d/ c) B | A3 |
w: 1.~Come, Thou al-might-*y King,  Help us Thy name** to sing,  
w: 2.~Come, Thou in-car-*nate Word, Gird on Thy might-**y sword; 
   d B G | D3 | A B c | B> A G | A B c |
w: Help us to praise;  Fa-ther! all glo-ri-ous,     O'er all vic-
w: Our pray'r at-tend; Come, and Thy peo-ple bless, And give Thy 
%
B> A G | G B d | d> e d | c B A | G3 |]
w: to-ri-ous,     Come, and reign o-ver us, An-cient of days.
w: word suc-cess, Spir-it of ho-li-ness!    On us de-scend.
% - - - - - - - - - - - - - - - - - - - - - - - - - - - - -
